lib/functional/maps&travel/airplane-tilt.svg

<svg xmlns="http://www.w3.org/2000/svg" fill="none" stroke="currentColor" aria-hidden="true" viewBox="0 0 32 32"><g id="Icon-AirplaneTilt"><g clip-path="url(#clip0_10_2163)"><g id="size=md (32px)"><g id="AirplaneTilt"><path id="Vector" stroke-linecap="round" stroke-linejoin="round" stroke-width="2" d="M26.1873 10.05L21.9873 14L25.9873 25L22.9873 28L17.0123 19.25L13.9873 22V25L10.9873 28L9.2123 22.7625L3.9873 21L6.9873 18H9.9873L12.9873 15L3.9873 8.99995L6.9873 5.99995L17.9873 9.99995L21.9498 5.81245L21.8623 5.87495C22.4259 5.31137 23.1903 4.99475 23.9873 4.99475C24.7843 4.99475 25.5487 5.31137 26.1123 5.87495C26.6759 6.43854 26.9925 7.20293 26.9925 7.99995C26.9925 8.79698 26.6759 9.56137 26.1123 10.125L26.1873 10.05Z"/></g></g></g></g><defs><clipPath id="clip0_10_2163"><rect width="32" height="32" fill="white" rx="5"/></clipPath></defs></svg>

<svg xmlns="http://www.w3.org/2000/svg" fill="none" stroke="currentColor" aria-hidden="true" viewBox="0 0 32 32"><path stroke-linecap="round" stroke-linejoin="round" stroke-width="2" d="m26.188 10.05-4.2 3.95 4 11-3 3-5.976-8.75L13.988 22v3l-3 3-1.775-5.238L3.988 21l3-3h3l3-3-9-6 3-3 11 4 3.962-4.188-.087.063a3.005 3.005 0 0 1 4.25 4.25l.075-.075Z"/></svg>
